svg/clockface/clockfacefatsquaresolid/clock_02_05.svg

<?xml version="1.0" encoding="UTF-8" standalone="no"?>
<svg
   height="1000"
   width="1000"
   version="1.1"
   viewBox="0 0 1000 1000"
   id="svg7"
   sodipodi:docname="clock_02_05.svg"
   xmlns:inkscape="http://www.inkscape.org/namespaces/inkscape"
   xmlns:sodipodi="http://sodipodi.sourceforge.net/DTD/sodipodi-0.dtd"
   xmlns="http://www.w3.org/2000/svg"
   xmlns:svg="http://www.w3.org/2000/svg">
  <defs
     id="defs11" />
  <sodipodi:namedview
     id="namedview9"
     pagecolor="#ffffff"
     bordercolor="#000000"
     borderopacity="0.25"
     inkscape:showpageshadow="2"
     inkscape:pageopacity="0.0"
     inkscape:pagecheckerboard="0"
     inkscape:deskcolor="#d1d1d1" />
  <path
     id="path15"
     style="color:#000000;fill:#000000;stroke-width:60;-inkscape-stroke:none"
     d="M 129 129 L 129 159 L 129 869 L 869 869 L 869 129 L 129 129 z M 590.35938 263.49414 L 659.64062 303.49414 L 639.64062 338.13477 L 609.28125 390.71875 L 635.88477 375.35938 L 675.88477 444.64062 L 641.24414 464.64062 L 520 534.64062 A 40.004 40.004 0 0 1 460.1582 496.51172 A 40.004 40.004 0 0 1 465.35938 480 L 570.35938 298.13477 L 590.35938 263.49414 z " />
</svg>

<svg xmlns="http://www.w3.org/2000/svg" width="1000" height="1000"><path d="M129 129v740h740V129H129zm461.36 134.494 69.28 40-20 34.64-30.359 52.585 26.604-15.36 40 69.282-34.64 20-121.245 70a40.004 40.004 0 0 1-59.842-38.13A40.004 40.004 0 0 1 465.36 480l105-181.865 20-34.64z" style="-inkscape-stroke:none" stroke-width="60"/></svg>
